co/invision.svg

<svg viewBox="0 0 24 24" fill="none" xmlns="http://www.w3.org/2000/svg" height="1em" width="1em">
  <path d="M19.3621 20.9931H4.63806C3.7379 20.992 3.00861 20.2622 3.00806 19.3621V4.63806C3.00916 3.73829 3.73829 3.00916 4.63806 3.00806H19.3611C20.2612 3.00916 20.9909 3.73797 20.9931 4.63806V19.3621C20.992 20.2624 20.2624 20.992 19.3621 20.9931ZM6.67306 9.67006L6.28506 11.1001H7.56306L6.73706 14.4661C6.67636 14.7323 6.64285 15.004 6.63706 15.2771C6.59058 15.7164 6.74782 16.1529 7.06384 16.4617C7.37985 16.7705 7.81986 16.9177 8.25806 16.8611C9.18782 16.8207 10.023 16.2805 10.4411 15.4491L10.1141 16.7491H11.9251L12.9581 12.6081C13.2181 11.5481 13.7301 11.0081 14.4771 11.0081C14.7425 10.9883 15.0032 11.086 15.1901 11.2755C15.3771 11.4649 15.4714 11.7269 15.4481 11.9921C15.4507 12.189 15.422 12.3851 15.3631 12.5731L14.8351 14.4791C14.7589 14.743 14.7205 15.0164 14.7211 15.2911C14.6925 15.7298 14.8604 16.1586 15.1794 16.4611C15.4984 16.7637 15.9354 16.9088 16.3721 16.8571C17.4021 16.8571 18.1201 16.1571 18.5091 14.7761L17.8021 14.5031C17.5261 15.2921 17.2321 15.6761 16.9021 15.6761C16.6611 15.6761 16.5341 15.5091 16.5341 15.1921C16.5408 15.0258 16.566 14.8608 16.6091 14.7001L17.1291 12.8421C17.247 12.4598 17.3076 12.0621 17.3091 11.6621C17.3685 11.1305 17.2012 10.5984 16.8481 10.1966C16.495 9.79477 15.9889 9.56041 15.4541 9.55106C14.4059 9.69421 13.5009 10.357 13.0481 11.3131L13.4081 9.69606H10.6201L10.2291 11.0961H11.5231L10.7231 14.2841C10.4437 15.0673 9.72665 15.6103 8.89706 15.6671C8.86624 15.6675 8.83545 15.6652 8.80506 15.6601C8.56206 15.6031 8.42106 15.5101 8.42106 15.2081C8.42672 14.9584 8.46368 14.7105 8.53106 14.4701L9.74706 9.67006H6.67306ZM9.01806 6.50806C8.62864 6.50806 8.2688 6.71581 8.07409 7.05306C7.87938 7.3903 7.87938 7.80581 8.07409 8.14306C8.2688 8.4803 8.62864 8.68806 9.01806 8.68806V8.66306C9.3096 8.66542 9.59029 8.55257 9.79906 8.34906C10.0037 8.14695 10.1181 7.8707 10.1161 7.58306C10.1084 6.98357 9.61757 6.50305 9.01806 6.50806Z" fill="black"/>
</svg>

<svg viewBox="0 0 24 24" fill="none" xmlns="http://www.w3.org/2000/svg" height="1em" width="1em">
  <path d="M19.362 20.993H4.638a1.63 1.63 0 0 1-1.63-1.63V4.637c.001-.9.73-1.629 1.63-1.63h14.723c.9.001 1.63.73 1.632 1.63v14.724c-.001.9-.73 1.63-1.63 1.631ZM6.673 9.67l-.388 1.43h1.278l-.826 3.366c-.06.266-.094.538-.1.811a1.444 1.444 0 0 0 1.621 1.584c.93-.04 1.765-.58 2.183-1.412l-.327 1.3h1.811l1.033-4.14c.26-1.06.772-1.6 1.52-1.6a.907.907 0 0 1 .97.983c.003.197-.026.393-.085.581l-.528 1.906a2.904 2.904 0 0 0-.114.812 1.48 1.48 0 0 0 1.651 1.566c1.03 0 1.748-.7 2.137-2.08l-.707-.274c-.276.79-.57 1.173-.9 1.173-.24 0-.368-.167-.368-.484.007-.166.032-.331.075-.492l.52-1.858c.118-.382.179-.78.18-1.18a1.9 1.9 0 0 0-1.855-2.11 3.13 3.13 0 0 0-2.406 1.761l.36-1.617H10.62l-.39 1.4h1.293l-.8 3.188a2.09 2.09 0 0 1-1.826 1.383.515.515 0 0 1-.092-.007c-.243-.057-.384-.15-.384-.452.006-.25.043-.498.11-.738l1.216-4.8H6.673Zm2.345-3.162a1.09 1.09 0 1 0 0 2.18v-.025c.292.002.572-.11.781-.314a1.06 1.06 0 0 0 .317-.766 1.089 1.089 0 0 0-1.098-1.075Z" fill="#000"/>
</svg>
